communes/5499.svg

<?xml version="1.0" encoding="UTF-8"?>
<svg version="1.0" viewBox="0 0 603 763" xmlns="http://www.w3.org/2000/svg" xmlns:cc="http://creativecommons.org/ns#" xmlns:dc="http://purl.org/dc/elements/1.1/" xmlns:rdf="http://www.w3.org/1999/02/22-rdf-syntax-ns#" xmlns:xlink="http://www.w3.org/1999/xlink">
<metadata>
<rdf:RDF>
<cc:Work rdf:about="">
<dc:format>image/svg+xml</dc:format>
<dc:type rdf:resource="http://purl.org/dc/dcmitype/StillImage"/>
<dc:date>07-AUG-2006</dc:date>
<dc:creator>
<cc:Agent>
<dc:title>Jérôme BLUM (wagner51)</dc:title>
</cc:Agent>
</dc:creator>
<cc:license rdf:resource="http://creativecommons.org/licenses/GPL/2.0/"/>
<dc:coverage/>
<dc:description>Gabarit pour le Projet:Blasons de WIkipédia</dc:description>
<dc:subject>
<rdf:Bag>
<rdf:li>blason suisse modèle gabarit projet blasons</rdf:li>
</rdf:Bag>
</dc:subject>
<dc:language>fr</dc:language>
<dc:title>Gabrit d'un blason suisse</dc:title>
</cc:Work>
<cc:License rdf:about="http://creativecommons.org/licenses/GPL/2.0/">
<cc:permits rdf:resource="http://web.resource.org/cc/Reproduction"/>
<cc:permits rdf:resource="http://web.resource.org/cc/Distribution"/>
<cc:requires rdf:resource="http://web.resource.org/cc/Notice"/>
<cc:permits rdf:resource="http://web.resource.org/cc/DerivativeWorks"/>
<cc:requires rdf:resource="http://web.resource.org/cc/ShareAlike"/>
<cc:requires rdf:resource="http://web.resource.org/cc/SourceCode"/>
</cc:License>
</rdf:RDF>
</metadata>
<defs>
<radialGradient id="a" cx="858.04" cy="579.93" r="300" gradientTransform="matrix(1.215 1.5316e-24 1.4647e-23 1.2667 -839.19 -490.49)" gradientUnits="userSpaceOnUse">
<stop stop-color="#fff" stop-opacity=".31373" offset="0"/>
<stop stop-color="#fff" stop-opacity=".25098" offset=".19"/>
<stop stop-color="#6b6b6b" stop-opacity=".12549" offset=".6"/>
<stop stop-opacity=".12549" offset="1"/>
</radialGradient>
</defs>
<desc>Coat of Arms of Canton of Freiburg (Fribourg)</desc>
<g>
<path d="m1.5 1.5v458.87c0 166.31 134.31 301.13 300 301.13 165.69 0 300-134.82 300-301.13v-458.87h-600z" fill="#fcef3c"/>
</g>
<g>
<path d="m1.5 126.83 514.83 543.7c42.941-44.225 72.449-101.64 81.9-165.63l-476.73-503.4h-120v125.33z" fill="#2b5df2"/>
<path d="m598.23 504.9-476.73-503.4" fill="none" stroke="#000" stroke-width="3"/>
<path d="m1.5 126.83 514.83 543.7" fill="none" stroke="#000" stroke-width="3"/>
<path d="m373.8 493.29c3.416 9.126 8.709 17.715 15.892 25.177 28.186 29.279 74.831 30.159 104.12 1.967 29.287-28.193 30.182-74.837 1.996-104.12-7.183-7.461-15.564-13.077-24.552-16.839 18.255 27.356 14.667 64.728-10.052 88.061-24.381 23.012-61.206 24.707-87.401 5.751z" fill="#fff" stroke="#000" stroke-width="3"/>
<polygon transform="translate(-.038 -.045)" points="318.96 287.95 375.18 275.61 336.38 318.12 375.18 360.64 318.96 348.29 301.54 403.16 284.12 348.29 227.89 360.65 266.7 318.12 227.89 275.61 284.12 287.95 301.54 233.08" fill="#fff" stroke="#000" stroke-linecap="round" stroke-linejoin="round" stroke-width="3"/>
<circle transform="translate(-.038 -.045)" cx="301.54" cy="318.12" r="16.042" fill="#2b5df2" stroke="#000" stroke-width="3"></circle>
<path d="m185.29 164.63c6.02-0.268 13.285-2.074 15.443-9.599 2.161-7.523-2.766-14.119-6.036-14.881 0 0 8.065-2.57 7.047-12.184-1.018-9.612-7.822-12.126-11.983-11.513 3.1-0.306 5.073-5.889 4.208-10.355-0.865-4.468-5.883-10.445-9.286-9.397 0.019-4.453 0.18-9.318-3.418-13.095-3.261-3.423-6.051-5.602-15.911-1.011 0 0 0.964-6.692-8.334-7.651-9.296-0.957-21.141 4.769-27.291 10.626-10.561-3.877-10.429-12.523-13.443-15.688-3.328-3.494-7.95-3.636-13.035 1.208-5.083 4.842-9.252 8.813-9.252 8.813-3.593-3.771-10.724-2.812-15.927 2.145-5.203 4.956-6.508 12.031-2.915 15.803 0 0-4.169 3.971-9.253 8.814-5.085 4.844-5.165 9.465-1.837 12.959 3.014 3.165 11.653 3.457 15.013 14.192-6.149 5.857-12.442 17.409-11.939 26.741 0.505 9.33 7.236 8.697 7.236 8.697-5.063 9.624-3.024 12.518 0.236 15.941 3.599 3.778 8.467 3.852 12.917 4.048-1.214 3.351 4.512 8.652 8.935 9.732 4.42 1.08 10.091-0.618 10.548-3.7-0.815 4.127 1.365 11.046 10.916 12.53 9.553 1.482 12.512-6.448 12.512-6.448 0.604 3.303 6.952 8.543 14.571 6.751 7.621-1.79 9.778-8.959 10.339-14.959 1.85 1.942 11.396 10.396 25.583-3.116 14.187-13.516 6.207-23.461 4.356-25.403z" fill="#fff" stroke="#000" stroke-linecap="round" stroke-linejoin="round" stroke-width="3"/>
<path d="m185.29 164.63c-1.851-1.943-9.539-4.32-19.51-10.339-20.397-12.311-46.716-35.139-46.716-35.139" fill="none" stroke="#000" stroke-linecap="round" stroke-linejoin="round" stroke-width="2.5"/>
<path d="m155.35 193.15c-1.85-1.943-3.851-9.737-9.378-19.99-11.306-20.97-32.827-48.369-32.827-48.369" fill="none" stroke="#000" stroke-linecap="round" stroke-linejoin="round" stroke-width="2.5"/>
<path d="m194.7 140.15c-3.273-0.765-6.992-0.395-29.086-7.037-22.095-6.643-45.478-22.288-45.478-22.288" fill="none" stroke="#000" stroke-linecap="round" stroke-linejoin="round" stroke-width="2.5"/>
<path d="m189.76 116.46c-4.161 0.614-6.906 0.583-19.295 0.569-24.232-0.027-51.185-12.972-51.185-12.972" fill="none" stroke="#000" stroke-linecap="round" stroke-linejoin="round" stroke-width="2.5"/>
<path d="m184.68 96.702c-3.404 1.051-4.634 1.316-13.697 3.247-25.212 5.368-52.378-3.721-52.378-3.721" fill="none" stroke="#000" stroke-linecap="round" stroke-linejoin="round" stroke-width="2.5"/>
<path d="m102.27 84.025s24.996 16.304 63.09-1.431" fill="none" stroke="#000" stroke-linecap="round" stroke-linejoin="round" stroke-width="2.5"/>
<path d="m133.39 86.609c-1.343-0.289-2.556-0.64-3.654-1.042" fill="none" stroke="#000" stroke-linecap="round" stroke-linejoin="round" stroke-width="2.5"/>
<path d="m130.44 201.36c-0.605-3.306-0.057-7.001-5.616-29.393-5.561-22.391-20.051-46.507-20.051-46.507" fill="none" stroke="#000" stroke-linecap="round" stroke-linejoin="round" stroke-width="2.5"/>
<path d="m107.01 195.27c0.816-4.127 0.916-6.867 1.505-19.244 1.151-24.205-10.468-51.755-10.468-51.755" fill="none" stroke="#000" stroke-linecap="round" stroke-linejoin="round" stroke-width="2.5"/>
<path d="m87.528 189.24c1.214-3.348 1.54-4.564 3.908-13.522 6.586-24.921-1.172-52.496-1.172-52.496" fill="none" stroke="#000" stroke-linecap="round" stroke-linejoin="round" stroke-width="2.5"/>
<path d="m78.875 106.31s15.066 25.762-4.498 62.949" fill="none" stroke="#000" stroke-linecap="round" stroke-linejoin="round" stroke-width="2.5"/>
<path d="m79.944 137.51c-0.223-1.355-0.515-2.583-0.863-3.7" fill="none" stroke="#000" stroke-linecap="round" stroke-linejoin="round" stroke-width="2.5"/>
<path d="m160.58 81.138c-3.503-4.968-8.75-2.952-8.75-2.952" fill="none" stroke="#000" stroke-linecap="round" stroke-linejoin="round" stroke-width="2.5"/>
<path d="m180.08 93.443c-0.503-6.761-7.331-9.629-7.331-9.629" fill="none" stroke="#000" stroke-linecap="round" stroke-linejoin="round" stroke-width="2.5"/>
<path d="m188.54 111.57c1.631-6.238-4.332-10.993-4.332-10.993" fill="none" stroke="#000" stroke-linecap="round" stroke-linejoin="round" stroke-width="2.5"/>
<path d="m192.71 135.5c5.807-7.234-0.358-14.565-0.358-14.565" fill="none" stroke="#000" stroke-linecap="round" stroke-linejoin="round" stroke-width="2.5"/>
<path d="m190.57 158.62c7.836-7.25 2.842-13.356 2.842-13.356" fill="none" stroke="#000" stroke-linecap="round" stroke-linejoin="round" stroke-width="2.5"/>
<path d="m73.154 164.41c-4.792-3.741-2.522-8.883-2.522-8.883" fill="none" stroke="#000" stroke-linecap="round" stroke-linejoin="round" stroke-width="2.5"/>
<path d="m84.497 184.49c-6.729-0.832-9.263-7.79-9.263-7.79" fill="none" stroke="#000" stroke-linecap="round" stroke-linejoin="round" stroke-width="2.5"/>
<path d="m102.19 193.82c-6.311 1.327-10.77-4.86-10.77-4.86" fill="none" stroke="#000" stroke-linecap="round" stroke-linejoin="round" stroke-width="2.5"/>
<path d="m125.9 199.14c-7.506 5.447-14.531-1.067-14.531-1.067" fill="none" stroke="#000" stroke-linecap="round" stroke-linejoin="round" stroke-width="2.5"/>
<path d="m149.09 198.13c-7.624 7.476-13.478 2.188-13.478 2.188" fill="none" stroke="#000" stroke-linecap="round" stroke-linejoin="round" stroke-width="2.5"/>
<path d="m183.35 171.04s1.383 6.261-6.97 14.218c-8.354 7.957-14.54 6.271-14.54 6.271" fill="none" stroke="#000" stroke-linecap="round" stroke-linejoin="round" stroke-width="2.5"/>
</g>
<g>
<path d="m1.5 1.5v458.87c0 166.31 134.31 301.13 300 301.13 165.69 0 300-134.82 300-301.13v-458.87h-600z" fill="url(#a)"/>
<path d="m1.5 1.5v458.87c0 166.31 134.31 301.13 300 301.13 165.69 0 300-134.82 300-301.13v-458.87h-600z" fill="none" stroke="#000" stroke-width="3"/>
</g>
</svg>

<?xml version="1.0" encoding="UTF-8" standalone="no"?>
<svg
   xmlns:dc="http://purl.org/dc/elements/1.1/"
   xmlns:cc="http://creativecommons.org/ns#"
   xmlns:rdf="http://www.w3.org/1999/02/22-rdf-syntax-ns#"
   xmlns:svg="http://www.w3.org/2000/svg"
   xmlns="http://www.w3.org/2000/svg"
   xmlns:xlink="http://www.w3.org/1999/xlink"
   xmlns:sodipodi="http://sodipodi.sourceforge.net/DTD/sodipodi-0.dtd"
   xmlns:inkscape="http://www.inkscape.org/namespaces/inkscape"
   height="763"
   width="603"
   version="1.0"
   id="svg20"
   sodipodi:version="0.32"
   inkscape:version="0.46"
   sodipodi:docname="Senarclens-coat_of_arms.svg"
   sodipodi:docbase="C:\Documents and Settings\Steve\Bureau\Blason Villages Suisse pour Wikipédia (par Delta-9)"
   inkscape:output_extension="org.inkscape.output.svg.inkscape">
  <metadata
     id="metadata31">
    <rdf:RDF>
      <cc:Work
         rdf:about="">
        <dc:format>image/svg+xml</dc:format>
        <dc:type
           rdf:resource="http://purl.org/dc/dcmitype/StillImage" />
        <dc:date>07-AUG-2006</dc:date>
        <dc:creator>
          <cc:Agent>
            <dc:title>Jérôme BLUM (wagner51)</dc:title>
          </cc:Agent>
        </dc:creator>
        <cc:license
           rdf:resource="http://creativecommons.org/licenses/GPL/2.0/" />
        <dc:coverage />
        <dc:description>Gabarit pour le Projet:Blasons de WIkipédia</dc:description>
        <dc:subject>
          <rdf:Bag>
            <rdf:li>blason suisse modèle gabarit projet blasons</rdf:li>
          </rdf:Bag>
        </dc:subject>
        <dc:language>fr</dc:language>
        <dc:title>Gabrit d'un blason suisse</dc:title>
      </cc:Work>
      <cc:License
         rdf:about="http://creativecommons.org/licenses/GPL/2.0/">
        <cc:permits
           rdf:resource="http://web.resource.org/cc/Reproduction" />
        <cc:permits
           rdf:resource="http://web.resource.org/cc/Distribution" />
        <cc:requires
           rdf:resource="http://web.resource.org/cc/Notice" />
        <cc:permits
           rdf:resource="http://web.resource.org/cc/DerivativeWorks" />
        <cc:requires
           rdf:resource="http://web.resource.org/cc/ShareAlike" />
        <cc:requires
           rdf:resource="http://web.resource.org/cc/SourceCode" />
      </cc:License>
    </rdf:RDF>
  </metadata>
  <defs
     id="defs29"><inkscape:perspective
   sodipodi:type="inkscape:persp3d"
   inkscape:vp_x="0 : 381.5 : 1"
   inkscape:vp_y="0 : 1000 : 0"
   inkscape:vp_z="603 : 381.5 : 1"
   inkscape:persp3d-origin="301.5 : 254.33333 : 1"
   id="perspective28" />
<linearGradient
   id="linearGradient2893">
  <stop
     style="stop-color:#ffffff;stop-opacity:0.3137255;"
     offset="0"
     id="stop2895" />
  <stop
     id="stop2897"
     offset="0.19"
     style="stop-color:#ffffff;stop-opacity:0.25098041;" />
  <stop
     style="stop-color:#6b6b6b;stop-opacity:0.1254902;"
     offset="0.60000002"
     id="stop2901" />
  <stop
     style="stop-color:#000000;stop-opacity:0.1254902;"
     offset="1"
     id="stop2899" />
</linearGradient>
<linearGradient
   id="linearGradient2955">
  <stop
     style="stop-color:white;stop-opacity:0;"
     offset="0"
     id="stop2965" />
  <stop
     style="stop-color:black;stop-opacity:0.64583331;"
     offset="1"
     id="stop2959" />
</linearGradient>
<radialGradient
   inkscape:collect="always"
   xlink:href="#linearGradient2893"
   id="radialGradient3236"
   gradientUnits="userSpaceOnUse"
   gradientTransform="matrix(1.215027,1.531577e-24,1.464684e-23,1.266667,-839.1924,-490.4894)"
   cx="858.04236"
   cy="579.93323"
   fx="858.04236"
   fy="579.93323"
   r="300" />
<inkscape:perspective
   id="perspective2530"
   inkscape:persp3d-origin="297.63751 : 280.63 : 1"
   inkscape:vp_z="595.27502 : 420.94501 : 1"
   inkscape:vp_y="0 : 1000 : 0"
   inkscape:vp_x="0 : 420.94501 : 1"
   sodipodi:type="inkscape:persp3d" />

	
	
	
	

	

		
		
		
	
			
			
			
			
			
			
			
			
			
			
			
			
			
			
			
			
			
			
			
			
			
			
			
			
		
			
				
			
				
		</defs>
  <sodipodi:namedview
     inkscape:window-height="968"
     inkscape:window-width="1280"
     inkscape:pageshadow="2"
     inkscape:pageopacity="0.0"
     guidetolerance="10.0"
     gridtolerance="10.0"
     objecttolerance="10.0"
     borderopacity="1.0"
     bordercolor="#666666"
     pagecolor="#ffffff"
     id="base"
     inkscape:zoom="0.97306798"
     inkscape:cx="309.74353"
     inkscape:cy="378.48114"
     inkscape:window-x="1280"
     inkscape:window-y="22"
     inkscape:current-layer="layer1"
     showgrid="false"
     showguides="true"
     inkscape:guide-bbox="true">
    <sodipodi:guide
       orientation="horizontal"
       position="761.5"
       id="guide1885" />
    <sodipodi:guide
       orientation="vertical"
       position="1.5"
       id="guide1887" />
    <sodipodi:guide
       orientation="horizontal"
       position="1.5"
       id="guide1889" />
    <sodipodi:guide
       orientation="vertical"
       position="601.5"
       id="guide1891" />
    <sodipodi:guide
       orientation="vertical"
       position="301.50081"
       id="guide1893" />
  </sodipodi:namedview>
  <desc
     id="desc22">Coat of Arms of Canton of Freiburg (Fribourg)</desc>
  <g
     inkscape:groupmode="layer"
     id="layer1"
     inkscape:label="Fond écu"
     style="opacity:1"
     sodipodi:insensitive="true">
    <path
       d="M 1.5,1.5 L 1.5,460.371 C 1.5,626.682 135.814,761.502 301.5,761.502 C 467.188,761.502 601.5,626.682 601.5,460.371 L 601.5,1.5 L 1.5,1.5 z"
       id="path2507"
       style="opacity:1;fill:#fcef3c;display:inline" />
  </g>
  <g
     inkscape:groupmode="layer"
     id="layer2"
     inkscape:label="Meubles"
     style="opacity:1;display:inline"
     sodipodi:insensitive="true">
    <path
       d="M 1.5,126.832 L 516.328,670.531 C 559.269,626.306 588.777,568.888 598.228,504.902 L 121.5,1.5 L 1.5,1.5 L 1.5,126.832 L 1.5,126.832 z"
       id="path2489"
       style="fill:#2b5df2" />
    <path
       d="M 598.228,504.902 L 121.5,1.5"
       id="path2489_4_"
       style="fill:none;stroke:#000000;stroke-width:3" />
    <path
       d="M 1.5,126.832 L 1.5,126.832 L 516.328,670.531"
       id="path2489_3_"
       style="fill:none;stroke:#000000;stroke-width:3" />
    <path
       style="fill:#ffffff;stroke:#000000;stroke-width:3"
       d="M 373.798,493.293 C 377.214,502.419 382.507,511.008 389.69,518.47 C 417.876,547.749 464.521,548.629 493.807,520.437 C 523.094,492.244 523.989,445.6 495.803,416.32 C 488.62,408.859 480.239,403.243 471.251,399.481 C 489.506,426.837 485.918,464.209 461.199,487.542 C 436.818,510.554 399.993,512.249 373.798,493.293 z"
       id="path2495" />
    <polygon
       points="318.956,287.953 375.183,275.606 336.377,318.124 375.183,360.645 318.956,348.294 301.537,403.163 284.119,348.294 227.892,360.647 266.7,318.124 227.893,275.606 284.119,287.953 301.537,233.084 318.956,287.953 "
       id="polygon2608_1_"
       style="fill:#ffffff;stroke:#000000;stroke-width:3;stroke-linecap:round;stroke-linejoin:round"
       transform="translate(-3.8e-2,-4.5e-2)" />
    <circle
       r="16.042"
       cy="318.12399"
       cx="301.53699"
       sodipodi:rx="16.042"
       sodipodi:cx="301.53699"
       sodipodi:ry="16.042"
       sodipodi:cy="318.12399"
       id="circle2728_1_"
       style="fill:#2b5df2;stroke:#000000;stroke-width:3"
       transform="translate(-3.8e-2,-4.5e-2)">
			</circle>
    <path
       d="M 185.287,164.631 C 191.307,164.363 198.572,162.557 200.73,155.032 C 202.891,147.509 197.964,140.913 194.694,140.151 C 194.694,140.151 202.759,137.581 201.741,127.967 C 200.723,118.355 193.919,115.841 189.758,116.454 C 192.858,116.148 194.831,110.565 193.966,106.099 C 193.101,101.631 188.083,95.654 184.68,96.702 C 184.699,92.249 184.86,87.384 181.262,83.607 C 178.001,80.184 175.211,78.005 165.351,82.596 C 165.351,82.596 166.315,75.904 157.017,74.945 C 147.721,73.988 135.876,79.714 129.726,85.571 C 119.165,81.694 119.297,73.048 116.283,69.883 C 112.955,66.389 108.333,66.247 103.248,71.091 C 98.165,75.933 93.996,79.904 93.996,79.904 C 90.403,76.133 83.272,77.092 78.069,82.049 C 72.866,87.005 71.561,94.08 75.154,97.852 C 75.154,97.852 70.985,101.823 65.901,106.666 C 60.816,111.51 60.736,116.131 64.064,119.625 C 67.078,122.79 75.717,123.082 79.077,133.817 C 72.928,139.674 66.635,151.226 67.138,160.558 C 67.643,169.888 74.374,169.255 74.374,169.255 C 69.311,178.879 71.35,181.773 74.61,185.196 C 78.209,188.974 83.077,189.048 87.527,189.244 C 86.313,192.595 92.039,197.896 96.462,198.976 C 100.882,200.056 106.553,198.358 107.01,195.276 C 106.195,199.403 108.375,206.322 117.926,207.806 C 127.479,209.288 130.438,201.358 130.438,201.358 C 131.042,204.661 137.39,209.901 145.009,208.109 C 152.63,206.319 154.787,199.15 155.348,193.15 C 157.198,195.092 166.744,203.546 180.931,190.034 C 195.118,176.518 187.138,166.573 185.287,164.631 z"
       id="path5795_3_"
       style="fill:#ffffff;stroke:#000000;stroke-width:3;stroke-linecap:round;stroke-linejoin:round" />
    <path
       d="M 185.287,164.631 C 183.436,162.688 175.748,160.311 165.777,154.292 C 145.38,141.981 119.061,119.153 119.061,119.153"
       id="path5797_3_"
       style="fill:none;stroke:#000000;stroke-width:2.5;stroke-linecap:round;stroke-linejoin:round" />
    <path
       d="M 155.347,193.149 C 153.497,191.206 151.496,183.412 145.969,173.159 C 134.663,152.189 113.142,124.79 113.142,124.79"
       id="path5799_3_"
       style="fill:none;stroke:#000000;stroke-width:2.5;stroke-linecap:round;stroke-linejoin:round" />
    <path
       d="M 194.696,140.149 C 191.423,139.384 187.704,139.754 165.61,133.112 C 143.515,126.469 120.132,110.824 120.132,110.824"
       id="path5801_3_"
       style="fill:none;stroke:#000000;stroke-width:2.5;stroke-linecap:round;stroke-linejoin:round" />
    <path
       d="M 189.76,116.455 C 185.599,117.069 182.854,117.038 170.465,117.024 C 146.233,116.997 119.28,104.052 119.28,104.052"
       id="path5803_3_"
       style="fill:none;stroke:#000000;stroke-width:2.5;stroke-linecap:round;stroke-linejoin:round" />
    <path
       d="M 184.682,96.702 C 181.278,97.753 180.048,98.018 170.985,99.949 C 145.773,105.317 118.607,96.228 118.607,96.228"
       id="path5805_3_"
       style="fill:none;stroke:#000000;stroke-width:2.5;stroke-linecap:round;stroke-linejoin:round" />
    <path
       d="M 102.267,84.025 C 102.267,84.025 127.263,100.329 165.357,82.594"
       id="path5807_3_"
       style="fill:none;stroke:#000000;stroke-width:2.5;stroke-linecap:round;stroke-linejoin:round" />
    <path
       d="M 133.386,86.609 C 132.043,86.32 130.83,85.969 129.732,85.567"
       id="path5809_3_"
       style="fill:none;stroke:#000000;stroke-width:2.5;stroke-linecap:round;stroke-linejoin:round" />
    <path
       d="M 130.439,201.355 C 129.834,198.049 130.382,194.354 124.823,171.962 C 119.262,149.571 104.772,125.455 104.772,125.455"
       id="path5811_3_"
       style="fill:none;stroke:#000000;stroke-width:2.5;stroke-linecap:round;stroke-linejoin:round" />
    <path
       d="M 107.013,195.273 C 107.829,191.146 107.929,188.406 108.518,176.029 C 109.669,151.824 98.05,124.274 98.05,124.274"
       id="path5813_3_"
       style="fill:none;stroke:#000000;stroke-width:2.5;stroke-linecap:round;stroke-linejoin:round" />
    <path
       d="M 87.528,189.242 C 88.742,185.894 89.068,184.678 91.436,175.72 C 98.022,150.799 90.264,123.224 90.264,123.224"
       id="path5815_3_"
       style="fill:none;stroke:#000000;stroke-width:2.5;stroke-linecap:round;stroke-linejoin:round" />
    <path
       d="M 78.875,106.306 C 78.875,106.306 93.941,132.068 74.377,169.255"
       id="path5817_3_"
       style="fill:none;stroke:#000000;stroke-width:2.5;stroke-linecap:round;stroke-linejoin:round" />
    <path
       d="M 79.944,137.514 C 79.721,136.159 79.429,134.931 79.081,133.814"
       id="path5819_3_"
       style="fill:none;stroke:#000000;stroke-width:2.5;stroke-linecap:round;stroke-linejoin:round" />
    <path
       d="M 160.578,81.138 C 157.075,76.17 151.828,78.186 151.828,78.186"
       id="path5821_3_"
       style="fill:none;stroke:#000000;stroke-width:2.5;stroke-linecap:round;stroke-linejoin:round" />
    <path
       d="M 180.079,93.443 C 179.576,86.682 172.748,83.814 172.748,83.814"
       id="path5823_3_"
       style="fill:none;stroke:#000000;stroke-width:2.5;stroke-linecap:round;stroke-linejoin:round" />
    <path
       d="M 188.545,111.573 C 190.176,105.335 184.213,100.58 184.213,100.58"
       id="path5825_3_"
       style="fill:none;stroke:#000000;stroke-width:2.5;stroke-linecap:round;stroke-linejoin:round" />
    <path
       d="M 192.707,135.505 C 198.514,128.271 192.349,120.94 192.349,120.94"
       id="path5827_3_"
       style="fill:none;stroke:#000000;stroke-width:2.5;stroke-linecap:round;stroke-linejoin:round" />
    <path
       d="M 190.57,158.625 C 198.406,151.375 193.412,145.269 193.412,145.269"
       id="path5829_3_"
       style="fill:none;stroke:#000000;stroke-width:2.5;stroke-linecap:round;stroke-linejoin:round" />
    <path
       d="M 73.154,164.411 C 68.362,160.67 70.632,155.528 70.632,155.528"
       id="path5831_3_"
       style="fill:none;stroke:#000000;stroke-width:2.5;stroke-linecap:round;stroke-linejoin:round" />
    <path
       d="M 84.497,184.487 C 77.768,183.655 75.234,176.697 75.234,176.697"
       id="path5833_3_"
       style="fill:none;stroke:#000000;stroke-width:2.5;stroke-linecap:round;stroke-linejoin:round" />
    <path
       d="M 102.193,193.825 C 95.882,195.152 91.423,188.965 91.423,188.965"
       id="path5835_3_"
       style="fill:none;stroke:#000000;stroke-width:2.5;stroke-linecap:round;stroke-linejoin:round" />
    <path
       d="M 125.895,199.145 C 118.389,204.592 111.364,198.078 111.364,198.078"
       id="path5837_3_"
       style="fill:none;stroke:#000000;stroke-width:2.5;stroke-linecap:round;stroke-linejoin:round" />
    <path
       d="M 149.093,198.134 C 141.469,205.61 135.615,200.322 135.615,200.322"
       id="path5839_3_"
       style="fill:none;stroke:#000000;stroke-width:2.5;stroke-linecap:round;stroke-linejoin:round" />
    <path
       d="M 183.352,171.039 C 183.352,171.039 184.735,177.3 176.382,185.257 C 168.028,193.214 161.842,191.528 161.842,191.528"
       id="path5841_3_"
       style="fill:none;stroke:#000000;stroke-width:2.5;stroke-linecap:round;stroke-linejoin:round" />
  </g>
  <g
     inkscape:groupmode="layer"
     id="layer3"
     inkscape:label="Reflet final"
     style="display:inline"
     sodipodi:insensitive="true">
    <path
       style="fill:url(#radialGradient3236);fill-opacity:1"
       d="M 1.5,1.5 L 1.5,460.3679 C 1.5,626.67854 135.81454,761.5 301.49993,761.5 C 467.1854,761.5 601.5,626.67854 601.5,460.3679 L 601.5,1.5 L 1.5,1.5 z "
       id="path2346" />
  </g>
  <g
     inkscape:groupmode="layer"
     id="layer4"
     inkscape:label="Contour final"
     style="display:inline"
     sodipodi:insensitive="true">
    <path
       style="fill:none;fill-opacity:1;stroke:#000000;stroke-width:3;stroke-miterlimit:4;stroke-dasharray:none;stroke-opacity:1"
       d="M 1.5,1.5 L 1.5,460.36794 C 1.5,626.67854 135.81454,761.5 301.49993,761.5 C 467.1854,761.5 601.5,626.67854 601.5,460.36794 L 601.5,1.5 L 1.5,1.5 z "
       id="path3239" />
  </g>
</svg>
